!!!OTL: Die Sonne ist verblichen
!!!ARE: Europa, Mitteleuropa, Deutschland
!!!SCT: A0116B
!!!YEM: Copyright 1995, estate of Helmut Schaffrath.
**kern
*ICvox
*Ivox
!! Mixed meters:  4/4; 6/4; 8/4
*M8/4
*k[f#]
*G:
{4g
=1
2g
4dd
2ffn
4ee
2dd
=2
*M4/4
1a}
=3
{2g
2a
=4
2.b-
4cc
=5
2a
4r}
{4g
=6
*M8/4
2g
4dd
2ffn
4ee
2dd
=7
*M4/4
1a}
=8
{4b-
2g
4a
=9
2.b-
4cc
=10
2a
4r}
{4cc
=11
4cc
4cc
4cc
4b-
=12
2a
[2g
=13
2g]
4a
[4b-
=14
4b-]
4g
4fn
4g
=15
2a
4r}
{4a
=16
2fn
4fn
[4g
=17
4g]
4a
2b-
=18
1g}
=19
{2dd
2ffn
=20
4ee
2dd
4cc
=21
2.b-
8a
8g
=22
2f#}
{2g
=23
4.b-
8b-
4b-
4cc
=24
2a
4g}
==
!!!AGN: Romanze, Ballade, Lied
!! M. Praetorius Mus. Sion. VIII. No. 229. "Wacht auf ihr Christen alle"
!!!ONB: ESAC (Essen Associative Code) Database: ALTDEU
!!!AMT: irregular
!!!AIN: vox
!!!EED: Helmut Schaffrath
!!!EEV: 1.0
*-
